public/barstool-sports-logo.svg

<svg width="36" height="36" viewBox="0 0 36 36" fill="none" xmlns="http://www.w3.org/2000/svg">
<path d="M17.9706 0L18.4318 1.16214L19.7372 1.28689L18.7786 2.06493L19.0632 3.37151L17.9706 2.63943L16.8811 3.37151L17.205 2.07149L16.2039 1.28689L17.4995 1.1687L17.9706 0ZM22.6227 0.607332L22.7666 1.85154L23.9935 2.31114L22.868 2.81342L22.8026 4.14955L21.9389 3.15812L20.6957 3.57833L21.3468 2.40963L20.5845 1.39194L21.8637 1.61517L22.6227 0.607332ZM26.9575 2.40963L26.7743 3.64727L27.8408 4.41218L26.6238 4.60259L26.2148 5.87306L25.6358 4.69123L24.3272 4.77658L25.2595 3.8147L24.7852 2.63287L25.9629 3.1811L26.9575 2.40963ZM30.6772 5.27886L30.1799 6.42458L31.0109 7.44228L29.7874 7.30768L29.0611 8.43042L28.8092 7.13697L27.5234 6.87762L28.6718 6.1915L28.5213 4.92759L29.5158 5.76473L30.6772 5.27886ZM33.5791 9.01805L32.8037 9.99635L33.3402 11.1946L32.1952 10.7481L31.2039 11.6411L31.2955 10.3279L30.121 9.74029L31.4068 9.37917L31.59 8.11855L32.3326 9.18548L33.5791 9.01805ZM35.4144 13.3711L34.4133 14.1131L34.6227 15.4131L33.6314 14.681L32.4438 15.2883L32.8724 14.0409L31.8877 13.1676L33.2257 13.1545L33.7263 11.9858L34.1679 13.2103L35.4144 13.3711ZM36 18.0427L34.8386 18.4957L34.7045 19.8056L33.9357 18.8404L32.6336 19.1162L33.3697 18.0263L32.6467 16.9265L33.9422 17.2614L34.7274 16.2601L34.8386 17.5601L36 18.0427ZM35.362 22.6321L34.1254 22.77L33.6576 23.9978L33.1668 22.8652L31.8353 22.793L32.8299 21.9296L32.4144 20.6788L33.5791 21.342L34.5965 20.5803L34.3675 21.8639L35.362 22.6321ZM33.5594 27.0443L32.3293 26.8539L31.5573 27.9176L31.3773 26.6963L30.1112 26.2761L31.2923 25.7049L31.217 24.3885L32.169 25.3307L33.3501 24.8612L32.7972 26.043L33.5594 27.0443ZM30.7132 30.7572L29.5714 30.2517L28.554 31.079L28.6947 29.8512L27.5823 29.1158L28.8713 28.8729L29.1396 27.5827L29.8135 28.7416L31.0763 28.5971L30.2356 29.5918L30.7132 30.7572ZM26.9869 33.6002L26.0153 32.8156L24.8179 33.3474L25.2726 32.2017L24.386 31.2004L25.6947 31.3022L26.2868 30.1269L26.6401 31.4204L27.8964 31.6108L26.8266 32.3494L26.9869 33.6002ZM22.6161 35.3697L21.8833 34.3586L20.5878 34.5621L21.3239 33.5707L20.7285 32.3757L21.9651 32.8123L22.8419 31.834L22.8484 33.1734L24.0098 33.6856L22.7863 34.1222L22.6161 35.3697ZM17.9673 36L17.5224 34.8313L16.2203 34.6869L17.1854 33.9252L16.9204 32.6121L18.0033 33.3606L19.1025 32.6416L18.759 33.9384L19.7503 34.7328L18.4547 34.8379L17.9673 36ZM13.2792 35.373L13.1516 34.1288L11.9313 33.6495L13.06 33.1669L13.145 31.8307L13.9956 32.832L15.2454 32.4282L14.578 33.5871L15.3272 34.6146L14.0513 34.3783L13.2792 35.373ZM8.98691 33.6002L9.18321 32.3659L8.12977 31.5878L9.34678 31.4138L9.77208 30.1466L10.3348 31.335L11.6467 31.2694L10.7045 32.2181L11.1625 33.4032L9.99128 32.8419L8.98691 33.6002ZM5.25082 30.6949L5.76118 29.5524L4.94329 28.5249L6.16685 28.6759L6.90622 27.563L7.1385 28.8597L8.42421 29.1355L7.26609 29.8052L7.40022 31.0724L6.41549 30.2221L5.25082 30.6949ZM2.36859 26.9721L3.15703 26.0036L2.63359 24.7988L3.77535 25.2617L4.77645 24.3786L4.66848 25.6918L5.83642 26.2958L4.54417 26.6405L4.34787 27.8979L3.61505 26.8211L2.36859 26.9721ZM0.605235 22.6584L1.61941 21.9296L1.42639 20.6296L2.40785 21.3748L3.60523 20.7839L3.15703 22.0215L4.13195 22.9079L2.79389 22.9046L2.27699 24.0667L1.85169 22.8357L0.605235 22.6584ZM0 17.872L1.16467 17.4321L1.31843 16.1255L2.07088 17.1005L3.3795 16.8411L2.63032 17.9245L3.33697 19.0341L2.04798 18.6796L1.24973 19.671L1.15485 18.3677L0 17.872ZM0.63795 13.2169L1.87786 13.0954L2.36205 11.8742L2.83969 13.0133L4.16794 13.1052L3.16358 13.9522L3.5627 15.2096L2.40785 14.5333L1.38059 15.2785L1.62595 13.9982L0.63795 13.2169ZM2.37186 8.96225L3.60196 9.16907L4.38713 8.11198L4.55071 9.33649L5.81352 9.77312L4.62268 10.3279L4.68157 11.6476L3.74264 10.6923L2.55507 11.1454L3.12432 9.97337L2.37186 8.96225ZM5.29335 5.17381L6.42857 5.6925L7.45911 4.87835L7.30207 6.10286L8.40458 6.85464L7.11232 7.08116L6.8277 8.36805L6.16685 7.19934L4.90404 7.32737L5.75791 6.3458L5.29335 5.17381ZM9.03926 2.38008L9.99782 3.17454L11.205 2.65913L10.7339 3.80157L11.6074 4.81269L10.2988 4.69451L9.69357 5.86321L9.3566 4.5632L8.1036 4.35966L9.18321 3.63086L9.03926 2.38008ZM13.3773 0.508846L14.0971 1.52982L15.3959 1.34598L14.6467 2.32428L15.229 3.52909L13.9956 3.07605L13.1058 4.0445L13.1189 2.70509L11.964 2.17983L13.1908 1.75634L13.3773 0.508846Z" fill="#141E30"/>
<path d="M27.6903 24.6215L22.0698 10.2458C23.0513 9.63514 23.5812 8.87352 23.3784 7.90835C23.0513 6.45732 19.1254 6.20126 15.3991 6.92349C11.6728 7.64572 9.55944 9.05736 9.83752 10.515C9.95202 11.1223 10.59 11.5786 11.5583 11.8544L10.6292 27.4841C10.6221 27.6752 10.6908 27.8612 10.8202 28.0015C10.9496 28.1418 11.1292 28.2249 11.3195 28.2326L11.8103 28.2523C11.9977 28.2587 12.1803 28.1917 12.3195 28.0656C12.4587 27.9394 12.5435 27.7638 12.5562 27.5761L12.8506 22.5992C13.9695 22.9505 15.6805 23.0227 17.6074 22.7666L18.53 28.9778C18.5424 29.0716 18.5733 29.1619 18.6207 29.2436C18.6682 29.3253 18.7313 29.3968 18.8064 29.4539C18.8816 29.511 18.9673 29.5525 19.0585 29.5762C19.1498 29.5999 19.2448 29.6051 19.3381 29.5917L19.8255 29.5228C19.9189 29.5103 20.009 29.4794 20.0904 29.4317C20.1718 29.3841 20.243 29.3208 20.2999 29.2454C20.3568 29.17 20.3982 29.084 20.4218 28.9925C20.4454 28.9009 20.4507 28.8055 20.4373 28.7119L19.5049 22.4187C21.4482 22.0017 23.1232 21.4765 24.1145 20.7772L25.9008 25.347C25.9739 25.5203 26.1116 25.6582 26.2846 25.7311C26.4575 25.8041 26.652 25.8064 26.8266 25.7376L27.2814 25.5538C27.4585 25.4842 27.6009 25.347 27.6775 25.1723C27.7541 24.9976 27.7587 24.7996 27.6903 24.6215ZM13.3806 21.1876C13.2988 20.7181 14.7154 20.1403 17.1494 19.6775L17.4046 21.3911C15.1767 21.6899 13.4558 21.6176 13.3806 21.1876ZM13.0338 19.4805L13.4722 12.1465C14.327 12.1818 15.1832 12.14 16.0305 12.0218L16.9466 18.1903C15.5862 18.4251 14.2678 18.8599 13.0338 19.4805ZM10.9433 9.87808C12.6314 10.8465 17.7023 11.3783 22.0665 8.3023C18.5496 12.1991 11.2541 11.2438 10.9433 9.87808ZM17.9117 11.6869C18.7239 11.514 19.5256 11.2948 20.313 11.0304L22.9662 17.8292C21.5905 17.6822 20.2022 17.7009 18.831 17.885L17.9117 11.6869ZM19.3021 21.0727L19.0534 19.3689C21.229 19.0865 23.12 19.0636 23.2116 19.4674C23.3522 20.1075 21.6118 20.6328 19.3021 21.0727Z" fill="#C62232"/>
</svg>

<svg xmlns="http://www.w3.org/2000/svg" fill="none" viewBox="0 0 36 36"><path fill="#141e30" d="m17.97 0 .46 1.16 1.3.13-.95.77.28 1.31-1.09-.73-1.09.73.33-1.3-1-.78 1.29-.12zm4.65.6.15 1.25 1.22.46-1.12.5-.07 1.34-.86-1-1.24.43.65-1.17-.77-1.02 1.28.23zm4.34 1.81-.19 1.24 1.07.76-1.22.2-.4 1.26-.58-1.18-1.31.09.93-.96-.48-1.19 1.18.55zm3.72 2.87-.5 1.14.83 1.02-1.22-.13-.73 1.12-.25-1.3-1.29-.25 1.15-.69-.15-1.26 1 .84zm2.9 3.74-.78.98.54 1.2-1.15-.45-.99.9.1-1.32-1.18-.59 1.29-.36.18-1.26.74 1.07zm1.83 4.35-1 .74.21 1.3-.99-.73-1.19.6.43-1.24-.98-.87 1.34-.01.5-1.17.44 1.22zm.59 4.67-1.16.46-.14 1.3-.77-.96-1.3.28.74-1.1-.72-1.1 1.3.34.78-1 .1 1.3zm-.64 4.6-1.23.13-.47 1.23-.5-1.13-1.32-.08.99-.86-.42-1.25 1.17.66 1.02-.76-.23 1.28zm-1.8 4.4-1.23-.19-.77 1.07-.18-1.22-1.27-.42 1.18-.58-.07-1.31.95.94 1.18-.47-.55 1.18zm-2.85 3.72-1.14-.5-1.02.82.14-1.23-1.1-.73 1.28-.25.27-1.29.67 1.16 1.27-.14-.84 1zM27 33.6l-.98-.78-1.2.53.46-1.15-.88-1 1.3.1.6-1.17.35 1.29 1.26.19-1.07.74zm-4.37 1.77-.74-1.01-1.3.2.74-.99-.6-1.2 1.24.44.88-.98v1.34l1.17.52-1.22.43zm-4.65.63-.45-1.17-1.3-.14.97-.76-.27-1.32 1.08.75 1.1-.72-.34 1.3.99.8-1.3.1zm-4.7-.63-.12-1.24-1.22-.48 1.13-.48.08-1.34.85 1 1.25-.4-.66 1.16.75 1.02-1.28-.23zM9 33.6l.2-1.23-1.06-.78 1.22-.18.42-1.26.57 1.19 1.3-.07-.94.95.46 1.18-1.17-.56zm-3.74-2.9.51-1.15-.82-1.03 1.23.15.74-1.1.23 1.29 1.28.28-1.15.67.13 1.26-.99-.85zm-2.88-3.73.79-.97-.53-1.2 1.14.46 1-.88-.1 1.31 1.16.6-1.29.35-.2 1.26-.73-1.08zM.6 22.66l1-.73-.18-1.3.98.75 1.2-.6-.45 1.24.97.89H2.8l-.51 1.16-.43-1.23zM0 17.87l1.17-.44.15-1.3.75.97 1.31-.26-.75 1.08.7 1.11-1.28-.35-.8 1-.1-1.31zm.64-4.65 1.24-.13.48-1.22.48 1.14 1.33.1-1 .84.4 1.26-1.16-.68-1.03.75.25-1.28zm1.73-4.26 1.23.2.79-1.05.16 1.23 1.26.43-1.19.56.06 1.32-.94-.96-1.19.46.57-1.18zM5.3 5.17l1.14.52 1.03-.81L7.3 6.1l1.1.76-1.29.22-.28 1.29-.66-1.17-1.27.13.86-.98zm3.75-2.79.96.8 1.2-.52-.46 1.14.87 1.01-1.31-.12-.6 1.17-.34-1.3-1.26-.2 1.08-.73zM13.38.51l.72 1.02 1.3-.18-.75.97.58 1.21L14 3.08l-.9.97.02-1.34-1.16-.53 1.23-.42z"/><path fill="#c62232" d="m27.69 24.62-5.62-14.37c.98-.61 1.51-1.38 1.3-2.34-.32-1.45-4.25-1.7-7.97-.99s-5.84 2.14-5.56 3.6c.11.6.75 1.06 1.72 1.34l-.93 15.63a.7.7 0 0 0 .69.74l.49.02a.7.7 0 0 0 .75-.67l.3-4.98c1.1.35 2.82.42 4.75.17l.92 6.2a.7.7 0 0 0 .8.62l.5-.07a.7.7 0 0 0 .6-.53v-.28l-.92-6.3c1.94-.4 3.61-.93 4.6-1.63l1.8 4.57a.7.7 0 0 0 .92.39l.45-.19a.7.7 0 0 0 .41-.93M13.4 21.2c-.09-.47 1.33-1.05 3.76-1.51l.26 1.71c-2.23.3-3.95.23-4.03-.2m-.34-1.7.43-7.34q1.3.05 2.56-.13l.92 6.17q-2.05.35-3.91 1.29m-2.1-9.6c1.7.97 6.76 1.5 11.13-1.58-3.52 3.9-10.81 2.94-11.12 1.58m6.96 1.8a22 22 0 0 0 2.4-.65l2.66 6.8a17 17 0 0 0-4.14.05zm1.4 9.4-.26-1.71c2.18-.28 4.07-.3 4.16.1.14.64-1.6 1.16-3.9 1.6"/></svg>
